icons/entity/icon_cashback-bonus_m_color.svg

<svg xmlns="http://www.w3.org/2000/svg" width="24" height="24">
  <defs>
    <radialGradient id="a" r="57.734375%" fx="50%" fy="50%">
      <stop offset="0%" stop-color="#FFF2B5"/>
      <stop offset="100%" stop-color="#F6BA00"/>
    </radialGradient>
  </defs>
  <g fill="none" transform="translate(2 2)">
    <rect width="20" height="20" fill="url(#a)" rx="10"/>
    <path fill="#0B1F35" d="M10.8951201 6.57100969c.0636784.17738982 1.5364687 4.35105381 1.5801339 4.47613641.0127357.0345682.0045484.0923336-.0477588.1128017-.0518524.0204681-.8173577.3283986-.8596583.344773-.0423007.0168293-.0900595-.0077323-.1055242-.0513975-.0159196-.0432104-.3525055-1.0647938-.3884383-1.1666792l-2.11184847-.0090969-.4220968 1.1757761c-.01500991.0418458-.06049447.0700462-.1055242.0513975l-.85920349-.344773c-.04367629-.0186377-.06507736-.0682402-.04866849-.1128017.05458148-.1564669 1.50462952-4.26281378 1.57922421-4.47613641.14327639-.41390957.32839859-.84100967.89513634-.84100967.5671925 0 .7454921.42027741.8942266.84100967zM7.35460128 13.1071422c-.04684911 0-.0846013.0404812-.0846013.0900594v.9970218c0 .050033.03775219.0896046.0846013.0896046h5.28985532c.0463942 0 .0836916-.0395716.0836916-.0896046v-.9970218c0-.050033-.0372974-.0896046-.0836916-.0896046H7.35460128v-.0004548zm1.89852588-3.76202868h1.48780024l-.6645295-2.24238923h-.17329625l-.64997449 2.24238923z"/>
  </g>
</svg>

<?xml version="1.0" encoding="UTF-8"?>
<svg width="24px" height="24px" viewBox="0 0 24 24" version="1.1" xmlns="http://www.w3.org/2000/svg" xmlns:xlink="http://www.w3.org/1999/xlink">
    <!-- Generator: Sketch 49 (51002) - http://www.bohemiancoding.com/sketch -->
    <title>icon_cashback-bonus_m_color</title>
    <desc>Created with Sketch.</desc>
    <defs></defs>
    <g id="icon_cashback-bonus_m_color" stroke="none" stroke-width="1" fill="none" fill-rule="evenodd">
        <g id="Group" transform="translate(2.000000, 2.000000)" fill-rule="nonzero">
            <rect id="Rectangle-path-Copy" fill="#FFD700" x="0" y="0" width="20" height="20" rx="10"></rect>
            <path d="M10.8951201,6.57100969 C10.9587985,6.74839951 12.4315888,10.9220635 12.475254,11.0471461 C12.4879897,11.0817143 12.4798024,11.1394797 12.4274952,11.1599478 C12.3756428,11.1804159 11.6101375,11.4883464 11.5678369,11.5047208 C11.5255362,11.5215501 11.4777774,11.4969885 11.4623127,11.4533233 C11.4463931,11.4101129 11.1098072,10.3885295 11.0738744,10.2866441 L8.96202593,10.2775472 L8.53992913,11.4533233 C8.52491922,11.4951691 8.47943466,11.5233695 8.43440493,11.5047208 L7.57520144,11.1599478 C7.53152515,11.1413101 7.51012408,11.0917076 7.52653295,11.0471461 C7.58111443,10.8906792 9.03116247,6.78433232 9.10575716,6.57100969 C9.24903355,6.15710012 9.43415575,5.73000002 10.0008935,5.73000002 C10.568086,5.73000002 10.7463856,6.15027743 10.8951201,6.57100969 Z M7.35460128,13.1071422 C7.30775217,13.1071422 7.26999998,13.1476234 7.26999998,13.1972016 L7.26999998,14.1942234 C7.26999998,14.2442564 7.30775217,14.283828 7.35460128,14.283828 L12.6444566,14.283828 C12.6908508,14.283828 12.7281482,14.2442564 12.7281482,14.1942234 L12.7281482,13.1972016 C12.7281482,13.1471686 12.6908508,13.107597 12.6444566,13.107597 L7.35460128,13.107597 L7.35460128,13.1071422 Z M9.25312716,9.34511352 L10.7409274,9.34511352 L10.0763979,7.10272429 L9.90310165,7.10272429 L9.25312716,9.34511352 Z" id="Shape-Copy" fill="#0B1F35"></path>
        </g>
    </g>
</svg>
